X: 1641
T: Annex, The
R: reel
M: 4/4
K: Amajor
efg|:acc/c/c dcdf|ecc/c/c BAFE|DFAc dcdf|ecAc Bggg
acc/c/c dcdf|ecc/c/c BAFE|DFAc dcdf|ecBc A2 eg:|
|:fcc/c/c defg|a2 eg fece|defg afge|cffe f2 fg|
fcc/c/c defg|a2 eg fece|defg aece|dBGB A2 eg:|

